Catalina-dark/actions/22/format-text-direction-horizontal.svg

<svg xmlns="http://www.w3.org/2000/svg" viewBox="0 0 22 22">
  <defs id="defs3051">
    <style type="text/css" id="current-color-scheme">
      .ColorScheme-Text {
        color:#f2f2f2;
      }
      </style>
  </defs>
 <path 
    style="fill:currentColor;fill-opacity:1;stroke:none" 
    d="M 6.9433594 3 L 3 9.828125 L 3 10 L 4.0566406 10 L 5.2109375 8 L 9.7890625 8 L 10.943359 10 L 12 10 L 12 9.828125 L 8.0566406 3 L 8 3 L 6.9433594 3 z M 11 3 L 11 4 L 16 4 L 16 3 L 11 3 z M 17 3 L 17 7 L 19 5 L 17 3 z M 7.5 4.0371094 L 9.2109375 7 L 5.7890625 7 L 7.5 4.0371094 z M 12 6 L 12 7 L 16 7 L 16 6 L 12 6 z M 13 9 L 13 10 L 16 10 L 16 9 L 13 9 z M 17 9 L 17 13 L 19 11 L 17 9 z M 3 12 L 3 13 L 16 13 L 16 12 L 3 12 z M 3 15 L 3 16 L 16 16 L 16 15 L 3 15 z M 17 15 L 17 19 L 19 17 L 17 15 z M 3 18 L 3 19 L 16 19 L 16 18 L 3 18 z "
    class="ColorScheme-Text"
    />  
</svg>

<svg width="22" height="22" viewBox="3 3 16 16" xmlns="http://www.w3.org/2000/svg">
<defs>
<style id="current-color-scheme" type="text/css">.ColorScheme-Text {
        color:#f2f2f2;
      }</style>
</defs>
<path class="ColorScheme-Text" d="m6.9434 3-3.9434 6.8281v0.17188h1.0566l1.1543-2h4.5781l1.1543 2h1.0566v-0.17188l-3.9434-6.8281h-0.056641-1.0566zm4.0566 0v1h5v-1h-5zm6 0v4l2-2-2-2zm-9.5 1.0371 1.7109 2.9629h-3.4219l1.7109-2.9629zm4.5 1.9629v1h4v-1h-4zm1 3v1h3v-1h-3zm4 0v4l2-2-2-2zm-14 3v1h13v-1h-13zm0 3v1h13v-1h-13zm14 0v4l2-2-2-2zm-14 3v1h13v-1h-13z" fill="currentColor"/>
</svg>
